round/svg/phone_locked.svg

<svg xmlns="http://www.w3.org/2000/svg" width="24" height="24"><path fill="none" d="M0 0h24v24H0V0z"/><g><path d="M19.23 15.26l-2.54-.29a1.99 1.99 0 0 0-1.64.57l-1.84 1.84a15.045 15.045 0 0 1-6.59-6.59l1.85-1.85c.43-.43.64-1.03.57-1.64l-.29-2.52a2.001 2.001 0 0 0-1.99-1.77H5.03c-1.13 0-2.07.94-2 2.07.53 8.54 7.36 15.36 15.89 15.89 1.13.07 2.07-.87 2.07-2v-1.73c.01-1.01-.75-1.86-1.76-1.98z"/><path d="M20 4v-.5a2.5 2.5 0 0 0-5 0V4c-.55 0-1 .45-1 1v4c0 .55.45 1 1 1h5c.55 0 1-.45 1-1V5c0-.55-.45-1-1-1zm-1 0h-3v-.5c0-.83.67-1.5 1.5-1.5s1.5.67 1.5 1.5V4z"/></g></svg>

<?xml version="1.0" encoding="utf-8"?>
<!-- Generator: Adobe Illustrator 19.1.0, SVG Export Plug-In . SVG Version: 6.00 Build 0)  -->
<svg version="1.1" xmlns="http://www.w3.org/2000/svg" xmlns:xlink="http://www.w3.org/1999/xlink" x="0px" y="0px" width="24px"
	 height="24px" viewBox="0 0 24 24" enable-background="new 0 0 24 24" xml:space="preserve">
<g id="Bounding_Boxes">
	<g id="ui_x5F_spec_x5F_header_copy_2">
	</g>
	<path fill="none" d="M0,0h24v24H0V0z"/>
</g>
<g id="Rounded_1_">
	<g>
		<path d="M19.23,15.26l-2.54-0.29c-0.61-0.07-1.21,0.14-1.64,0.57l-1.84,1.84c-2.83-1.44-5.15-3.75-6.59-6.59l1.85-1.85
			C8.9,8.51,9.11,7.91,9.04,7.3L8.75,4.78C8.63,3.77,7.78,3.01,6.76,3.01H5.03c-1.13,0-2.07,0.94-2,2.07
			c0.53,8.54,7.36,15.36,15.89,15.89c1.13,0.07,2.07-0.87,2.07-2v-1.73C21,16.23,20.24,15.38,19.23,15.26z"/>
		<path d="M20,4V3.5C20,2.12,18.88,1,17.5,1S15,2.12,15,3.5V4c-0.55,0-1,0.45-1,1v4c0,0.55,0.45,1,1,1h5c0.55,0,1-0.45,1-1V5
			C21,4.45,20.55,4,20,4z M19,4h-3V3.5C16,2.67,16.67,2,17.5,2S19,2.67,19,3.5V4z"/>
	</g>
</g>
</svg>
